!!!OTL: Die Geburt im Walde.
!!!ODT: 1860
!!!OTL-incipit: Es war ein Maedchen von Farbe so bleich,
!!!ARE: Europa, Mitteleuropa, Deutschland (BRD), Rheinland, Siebengebirge
!!!YOR: 1, S. 62
!!    1860 aufgezeichnet
!!!SCT: Q0007
!!!TXL: @@DE
!!!YEM: Copyright 1995, estate of Helmut Schaffrath.
**kern	**text
*ICvox	*
*M3/4	*
*k[f#]	*
*e:	*
{8gL	1._Es
8aJ	.
=1	=1
2b	war
4b	ein
=2	=2
4b	Mäd-
4b	-chen
8bL	von
8aJ	.
=3	=3
4g	Far-
4e	-be
8f#L	ſo
8gJ	.
=4	=4
4a	bleich,
4r}	.
{4b	es
=5	=5
4g	war
4b	ih-
4a	-rer
=6	=6
4f#	Mut-
4f#	-ter
8f#L	von
8gJ	.
=7	=7
4a	Her-
4g	-ʒen
4f#	ſo
=8	=8
2e}	leid.
==	==
!!!Ag: Ballade, Geburt, Tod, Moral
!!!ONB: ESAC (Essen Associative Code) Database: BALLADE
!!!AMT: simple triple
!!!AIN: vox
!!!EED: Helmut Schaffrath
!!!EEV: 1.0
!!@@COMMENT:"Mel.: 1860 von A. M.Arnold im Siebengebirge aufgezeichnet.
!!Text: Simrock Nr. 40 (aus Bonn und Rheindorf), vor 1852."
!!@@END:
!!!source: Deutsche Volkslieder mit ihren Melodien. Balladen. Herausgegeben vom Deutschen Volksliedarchiv. Erster Band Balladen. Berlin und Leipzig 1935.
!!!page: 62
!!!ENC: Anna Maria Matuszewska
!!!EEV: 2025/02/13
*-	*-
